X:590
T: KOMM WIR WOLLEN WANDERN
N: E1901
O: Europa, Mitteleuropa, Deutschland, Sachsen, Halle
R: Kinder - Lied, Wander - Spiel
M: 2/4
L: 1/8
K: F
 | cccc | cdB2 |
ABGE | F2z
c | cccc | cdB2 |
BzBz | BcAz |
FAGE | F2z2

@@@ Tune index: 5274
